X:33
T:Doublestop Studies - G Major
C:Mike Stangeland
M:4/4
L:1/8
Q:1/8=320
K:G
z2B2c2^c2|[gd][gd][gd][gd][gd][gd][g2d2]|[bg][bg][bg][bg][bg][bg][b2g2]|
[d'b][d'b][d'b][d'b][d'b][d'b][d'2b2]|
[g'd'][g'd'][g'd'][g'd'][g'd'][g'd'][g'2d'2]|[BG][BG][BG][BG][BG][BG][B2
G2]|[dB][dB][dB][dB][dB][dB][d2B2]|[gd][gd][gd][gd][gd][gd][g2d2]|
[bg][bg][bg][bg][bg][bg][b2g2]|[DB,][DB,][DB,][DB,][DB,][DB,][D2B,2]|[GD
][GD][GD][GD][GD][GD][G2D2]|[BG][BG][BG][BG][BG][BG][B2G2]|
[dB][dB][dB][dB][dB][dB][d2B2]|[gB][gB][gB][gB][gB][gB][g2B2]|[bd][bd][b
d][bd][bd][bd][b2d2]|[d'g][d'g][d'g][d'g][d'g][d'g][d'2g2]|
[g'b][g'b][g'b][g'b][g'b][g'b][g'2b2]|[BD][BD][BD][BD][BD][BD][B2D2]|[dG
][dG][dG][dG][dG][dG][d2G2]|[gB][gB][gB][gB][gB][gB][g2B2]|
[bd][bd][bd][bd][bd][bd][b2d2]|[DG,][DG,][DG,][DG,][DG,][DG,][D2G,2]|[GB
,][GB,][GB,][GB,][GB,][GB,][G2B,2]|[BD][BD][BD][BD][BD][BD][B2D2]|
[dG][dG][dG][dG][dG][dG][d2G2]|z8|z2G2A2B2|[ec][ec][ec][ec][ec][ec][e2c2
]|
[ge][ge][ge][ge][ge][ge][g2e2]|[c'g][c'g][c'g][c'g][c'g][c'g][c'2g2]|[e'
c'][e'c'][e'c'][e'c'][e'c'][e'c'][e'2c'2]|[cG][cG][cG][cG][cG][cG][c2G2]
|
[ec][ec][ec][ec][ec][ec][e2c2]|[ge][ge][ge][ge][ge][ge][g2e2]|[c'g][c'g]
[c'g][c'g][c'g][c'g][c'2g2]|[EC][EC][EC][EC][EC][EC][E2C2]|
